svg/分享.svg

<svg width="24" height="24" viewBox="0 0 24 24" fill="none" xmlns="http://www.w3.org/2000/svg"><path d="M13 2.48284C13 2.30466 13.2154 2.21543 13.3414 2.34142L21.8545 10.8545C21.9342 10.9342 21.9323 11.0639 21.8504 11.1413L13.3373 19.1814C13.2098 19.3019 13 19.2115 13 19.036V14.2C13 14.0895 12.908 13.9998 12.7976 14.0021C7.47016 14.1129 4.50597 18.5795 3.44925 20.5651C3.3458 20.7595 3.0074 20.6798 3.01304 20.4596C3.21371 12.6287 5.76167 7.59594 12.7971 7.50136C12.9075 7.49987 13 7.41046 13 7.3V2.48284Z" stroke="#0D131A" stroke-width="1.5" stroke-linecap="round" stroke-linejoin="round"/></svg>

<svg fill="none" viewBox="0 0 24 24"><path stroke="#0D131A" stroke-linecap="round" stroke-linejoin="round" stroke-width="1.5" d="M13 2.483a.2.2 0 0 1 .341-.142l8.514 8.514a.2.2 0 0 1-.005.286l-8.513 8.04a.2.2 0 0 1-.337-.145V14.2c0-.11-.092-.2-.202-.198-5.328.11-8.292 4.577-9.349 6.563-.103.194-.442.115-.436-.105.2-7.831 2.749-12.864 9.784-12.959A.205.205 0 0 0 13 7.3z"/></svg>
